!!!SOCIAL_FUNCTION:	songs of personal narratives concerning war
!!!PDT:	1918

Specific Region: Dakotas, Minnesota, Montana, Nebraska
!!!REG: Dakotas and Montana
!!!LING_GROUP: Siouan
!!!LANG: Tone
!!!OTL@ENG: Owls Hoot At Me
!!!ONM: No. 160
**kern
*Imale
*clefF4
*k[b-]
*M3/4
*MM96
16f
8.d
4f
8d
8c
=2
2c
4A
=3
16d
8.d
4f
8d
8c
=4
2.c
=5
8c
8c
4d
12c
12B-
12A
=6
8.G
16A
16G
[8.G
8.G]
16A
=7||
*M2/4
2G
=8||
*M3/4
8c
8c
4d
12c
12B-
12A
=9||
*M2/4
8G
8G
8A
8G
=10||
*M3/4
8F
8F
4F
8.F
16F
=11
2.F
=12||
*M2/4
16d
8.d
8f
(16f
16d)
=13
16d
8.c
[4c
=14
4c]
4A
=15
16d
8.d
8f
(16f
16d)
=16
16d
8.c
[4c
=17
2c]
=18||
*M3/4
16c
8.c
4d
(16d
16c)
16B-
16A
=19
8.G
16A
16G
[8.G
8.G]
16G
=20||
*M2/4
2G
=21||
*M3/4
4c
4d
12c
12B-
12A
=22||
*M2/4
16G
8.G
8A
8G
=23||
*M3/4
8.F
16F
2F
=24
4F
2r
==
*-
!!!CNT: Native American -- Sioux
!!!MRD: 1911/07//-1914///
!!!OCL: Frances Densmore
!!!YOR1: Teton Sioux Music, Bulletin 61,
!!!YOR2: Bureau of American Ethnology, Smithsonian Institution
!!!PPR: Government Printing Office
!!!PPP: Washington, D.C.
!!!PDT: 1918///
!!!ENC: Craig Stuart Sapp
!!!END: 2002/03/25/
!!!EEV: 2002/03/31/
!!!AGN: War Song/Song of Personal Narrative Concerning War
!!!MPN@@SIO: Wi'yaka-wangzhi'la
!!!MPN@ENG: One Feather
!!!TXO: Teton Sioux
!!!MLC: Standing Rock Reservation, South Dakota, United States of America
!!!ARL: 45.9/-100.7#
!!!catalog: Catalogue No. 627
!!!PPG: 386
!!!EFL: 165/245
!!!VTS: 418766642
